X: 22526
T: Lady Glenorchy
R: reel
M: 4/4
K: Amixolydian
g|:aefd c2 Ae|cA A/A/A aeeg|aefd c2 Ad|BG G/G/G gBBe:|
cAAg fded|cAAe ce a2|cAAg fded|BGGA Bcde|
cAAg fded|cAAe ce a2|ceae fdec|BGGA BcdB||

